assets/media/img/advantages-23.svg

<svg width="40" height="40" viewBox="0 0 40 40" fill="none" xmlns="http://www.w3.org/2000/svg">
<path fill-rule="evenodd" clip-rule="evenodd" d="M5.37773 9.01363C5.37771 9.01354 5.37775 9.01345 5.37784 9.01342C5.3779 9.0134 5.37794 9.01335 5.37795 9.01329L5.37806 9.01255C5.37818 9.01177 5.37892 9.01125 5.3797 9.01138L5.38155 9.01172C5.3821 9.01181 5.38266 9.01177 5.38318 9.01159L20.001 4.00021C20.0031 3.9995 20.0054 4.00066 20.006 4.00276C20.0064 4.00396 20.0073 4.00491 20.0085 4.00531L34.6124 9.01193C34.6133 9.01224 34.6143 9.01231 34.6152 9.01214L34.6184 9.01157C34.6198 9.01133 34.621 9.01224 34.6212 9.01358C34.6213 9.01366 34.6213 9.01375 34.6213 9.01383C34.6214 9.01457 34.6219 9.01518 34.6226 9.01542C34.6236 9.01576 34.6242 9.01685 34.6239 9.01788L34.6229 9.02101C34.6227 9.02178 34.6226 9.02259 34.6228 9.02338C35.1131 12.1963 35.1245 15.4229 34.6562 18.519C34.1873 21.6191 33.2468 24.5275 31.8884 27.078C30.53 29.6284 28.7804 31.7707 26.7397 33.3825C24.6992 34.994 22.4077 36.0433 19.9963 36.4706C19.9958 36.4707 19.9954 36.4703 19.9953 36.4698C19.9952 36.4695 19.9949 36.4692 19.9946 36.4691C17.5846 36.0407 15.2947 34.9907 13.2556 33.3793C11.2156 31.7673 9.46678 29.6249 8.10901 27.0747C6.75125 24.5245 5.81121 21.6165 5.34265 18.517C4.87423 15.4184 4.88619 12.1893 5.37783 9.01408C5.37784 9.01401 5.37783 9.01395 5.37781 9.01388L5.37773 9.01363ZM33.7962 10.3663C33.7526 9.99078 33.4933 9.67709 33.1357 9.55448L20.3128 5.15848C20.1026 5.08642 19.8744 5.08642 19.6642 5.15848L6.86439 9.54659C6.50683 9.66917 6.24757 9.98275 6.20391 10.3582C5.89029 13.0553 5.93195 15.772 6.32736 18.3876C6.7801 21.3824 7.68634 24.1774 8.98446 26.6156C10.2825 29.0536 11.943 31.0804 13.8593 32.5947C15.6781 34.032 17.6975 34.9847 19.8137 35.4171C19.9363 35.4422 20.0628 35.4422 20.1855 35.4171C22.3002 34.985 24.3183 34.0333 26.1361 32.5976C28.0531 31.0836 29.7144 29.0569 31.013 26.6187C32.3117 24.1803 33.2185 21.3849 33.6715 18.3895C34.0668 15.776 34.1089 13.0615 33.7962 10.3663Z" fill="#46403C"/>
<path fill-rule="evenodd" clip-rule="evenodd" d="M17.8686 24.2656C17.8672 24.2666 17.8659 24.2678 17.8647 24.2691C17.8522 24.2824 17.8312 24.2824 17.8187 24.2691L13.3703 19.5241C13.1891 19.3308 13.1891 19.0301 13.3703 18.8368C13.5687 18.6251 13.9048 18.6251 14.1033 18.8368L17.3379 22.287C17.6878 22.6603 18.2629 22.7092 18.6709 22.4005L27.2839 15.8824C27.5143 15.708 27.8441 15.764 28.0041 16.0046C28.151 16.2254 28.1006 16.5223 27.8892 16.6823L17.8686 24.2656Z" fill="#46403C"/>
</svg>

<svg width="40" height="40" fill="none" xmlns="http://www.w3.org/2000/svg"><path fill-rule="evenodd" clip-rule="evenodd" d="M5.378 9.014v-.001c0-.001 0-.002.002-.002h.003l14.618-5.01c.002-.002.004 0 .005.002 0 .001.001.002.003.002l14.603 5.007h.006c.002 0 .003 0 .003.002l.002.001v.008c.49 3.173.502 6.4.033 9.496-.469 3.1-1.41 6.009-2.768 8.559-1.358 2.55-3.108 4.693-5.148 6.305-2.04 1.611-4.332 2.66-6.744 3.088v-.001h-.001c-2.41-.43-4.7-1.48-6.74-3.09-2.04-1.613-3.788-3.755-5.146-6.305s-2.298-5.459-2.766-8.558a31.543 31.543 0 01.035-9.503zm28.418 1.352a.981.981 0 00-.66-.812L20.313 5.158a1 1 0 00-.649 0l-12.8 4.389a.981.981 0 00-.66.811 30.399 30.399 0 00.123 8.03c.453 2.994 1.36 5.79 2.657 8.228 1.299 2.438 2.959 4.464 4.875 5.979 1.82 1.437 3.839 2.39 5.955 2.822a.932.932 0 00.372 0c2.114-.432 4.132-1.384 5.95-2.82 1.917-1.513 3.578-3.54 4.877-5.978 1.299-2.439 2.205-5.234 2.659-8.23.395-2.613.437-5.327.124-8.023z" fill="#46403C"/><path fill-rule="evenodd" clip-rule="evenodd" d="M17.869 24.266a.026.026 0 00-.004.003.032.032 0 01-.046 0l-4.449-4.745a.502.502 0 01.733-.687l3.235 3.45a1 1 0 001.333.114l8.613-6.519a.501.501 0 01.605.8l-10.02 7.584z" fill="#46403C"/></svg>
